lib/logotmp/nrk-logo-nrk-trondelag-on-dark.svg

<svg width="115" height="24" viewBox="0 0 115 24" fill="none" xmlns="http://www.w3.org/2000/svg">
<path d="M0 17.9976V5.99865H4V17.9976H0ZM9.24381 7.90834L11.5081 17.9976H7.19917L4.49549 5.99865H6.91217C7.46635 5.99146 8.00406 6.18681 8.4245 6.54795C8.84562 6.89394 9.08495 7.37426 9.24381 7.90834ZM12 17.9976V5.99865H16V17.9976H12ZM19.0105 10.5617C18.5862 10.5658 18.1687 10.4548 17.8025 10.2405C17.4412 10.0317 17.1411 9.73152 16.9323 9.37016C16.7178 9.00389 16.6068 8.58632 16.611 8.16188C16.6061 7.74002 16.7172 7.32494 16.9323 6.96199C17.1433 6.60455 17.4431 6.30765 17.8025 6.10008C18.1689 5.88606 18.5862 5.77507 19.0105 5.77894C19.4322 5.7744 19.8471 5.88549 20.2102 6.10008C20.566 6.30947 20.8626 6.60612 21.072 6.96199C21.2868 7.32504 21.3979 7.74005 21.3933 8.16188C21.3973 8.58629 21.2863 9.00379 21.072 9.37016C20.8649 9.72993 20.5679 10.0298 20.2102 10.2405C19.8471 10.4555 19.4324 10.5666 19.0105 10.5617ZM22 17.9976V5.99865H26V17.9976H22ZM30.9737 12.5558C30.9848 12.5674 31.0693 12.7054 31.2272 12.9698C31.3851 13.2342 31.5906 13.5722 31.8439 13.9838C32.0974 14.3953 32.3649 14.8318 32.6463 15.2936C32.9278 15.7553 33.1926 16.1919 33.4408 16.6033C33.6881 17.0147 33.9697 17.4795 34.2857 17.9976H29.9598C29.6893 17.5582 29.4441 17.161 29.2245 16.8061C29.0048 16.4512 28.7713 16.0681 28.5238 15.6569C28.2758 15.2461 28.0306 14.8461 27.7882 14.457C27.5458 14.0679 27.3375 13.7272 27.1633 13.4346C26.9883 13.1419 26.8671 12.9447 26.7997 12.8431C26.6325 12.591 26.5336 12.2999 26.5127 11.9981C26.5294 11.7085 26.6226 11.4285 26.7828 11.1867C26.8503 11.074 26.9743 10.874 27.1545 10.5867C27.3348 10.2994 27.546 9.95861 27.7882 9.56428C28.0304 9.16995 28.2756 8.76716 28.5238 8.35593C28.772 7.9447 29.0055 7.55879 29.2245 7.19826C29.4445 6.83811 29.6897 6.43814 29.9598 5.99837H34.2857L30.9396 11.4571C30.8361 11.6191 30.7777 11.8059 30.7706 11.9981C30.7818 12.1999 30.8528 12.3939 30.9737 12.5558Z" fill="white"/>
<g clip-path="url(#clip0_5918_1348)">
<path d="M42.773 7.4866V17.9956H40.999V7.4866H37.1299V5.9998H46.6251V7.4866H42.773ZM50.0887 9.31976C49.7733 9.40424 49.4749 9.53377 49.1933 9.70836C48.9117 9.88295 48.647 10.0941 48.3992 10.3419C48.3598 10.3814 48.3203 10.4264 48.2809 10.4687V9.20994L46.5576 9.46338V17.9956H48.2809V11.6119C48.4104 11.5218 48.5428 11.4373 48.6779 11.3641C48.8525 11.2684 49.0271 11.1867 49.2017 11.1191C49.3763 11.0516 49.5537 10.9924 49.7339 10.9417C49.9141 10.891 50.1028 10.8544 50.2999 10.8319C50.497 10.8094 50.7026 10.8038 50.9166 10.815L51.1193 9.22684C50.7476 9.20431 50.4041 9.23529 50.0887 9.31976ZM60.7329 9.69991L59.7558 10.7362C59.8797 10.8995 59.9979 11.0741 60.0993 11.2627C60.4541 11.9217 60.6315 12.696 60.6315 13.5859C60.6315 14.5208 60.44 15.3317 60.0571 16.0188C59.6741 16.7059 59.1475 17.2353 58.4773 17.607C57.8071 17.9787 57.0328 18.1646 56.1542 18.1646C55.2756 18.1646 54.5519 17.99 53.9156 17.6408C53.7719 17.5619 53.6368 17.4718 53.5072 17.3761L52.6062 18.3504L51.829 17.6408L52.7695 16.6383C52.6484 16.475 52.5358 16.3004 52.4372 16.1118C52.088 15.4416 51.9134 14.6447 51.9134 13.721C51.9134 12.7974 52.0965 11.9977 52.4625 11.3219C52.8286 10.6461 53.3411 10.1223 54 9.7506C54.659 9.3789 55.4277 9.19305 56.3063 9.19305C57.1848 9.19305 57.962 9.37327 58.6041 9.7337C58.742 9.80973 58.8687 9.89703 58.9926 9.98995L59.9388 8.9903L60.7329 9.69991ZM53.7213 13.6197C53.7213 14.3096 53.8226 14.8868 54.0282 15.3571L57.9592 11.1107C57.8071 10.9727 57.6354 10.8573 57.4411 10.77C57.1257 10.6292 56.754 10.5588 56.326 10.5588C55.7966 10.5588 55.3376 10.6714 54.949 10.8967C54.5604 11.1219 54.2591 11.4599 54.0451 11.9104C53.8311 12.361 53.7241 12.9298 53.7241 13.6169L53.7213 13.6197ZM58.8406 13.6197C58.8406 13.1579 58.7871 12.7383 58.6801 12.361C58.6378 12.2145 58.5872 12.0765 58.5308 11.947L54.597 16.1934C54.6956 16.2863 54.7969 16.3708 54.9124 16.4412C55.2897 16.6778 55.7318 16.796 56.2387 16.796C56.7455 16.796 57.1933 16.6806 57.5819 16.4497C57.9705 16.2188 58.2774 15.8668 58.5027 15.3937C58.728 14.9206 58.8406 14.3293 58.8406 13.6197ZM69.4172 9.54785C68.9891 9.31132 68.4485 9.19305 67.7952 9.19305C67.3109 9.19305 66.8293 9.26908 66.3506 9.42114C65.8719 9.5732 65.4186 9.79002 64.9905 10.0716C64.8272 10.1786 64.6695 10.2969 64.5175 10.418V9.20994L62.7941 9.46338V17.9956H64.5175V11.5781C64.6808 11.4824 64.8526 11.3923 65.0328 11.3134C65.275 11.2064 65.5171 11.1135 65.7593 11.0347C66.0015 10.9558 66.2436 10.8967 66.4858 10.8573C66.728 10.8178 66.9617 10.7981 67.187 10.7981C67.5023 10.7981 67.7727 10.8404 67.9979 10.9248C68.2232 11.0093 68.4091 11.136 68.5555 11.305C68.7019 11.4739 68.8089 11.6879 68.8765 11.947C68.9441 12.2061 68.9779 12.5102 68.9779 12.8594V17.9956H70.7012V12.5046C70.7012 11.7386 70.5942 11.1135 70.3802 10.6292C70.1662 10.1448 69.8452 9.78439 69.4172 9.54785ZM79.1659 5.49293L80.8892 5.2564V17.9956H79.4869L79.2757 17.2156C79.149 17.3085 79.0223 17.3958 78.8955 17.4718C78.5126 17.7084 78.1212 17.883 77.7213 17.9956C77.3214 18.1082 76.8962 18.1646 76.4457 18.1646C75.6685 18.1646 75.0011 17.9928 74.4436 17.6492C73.886 17.3057 73.458 16.8185 73.1595 16.1878C72.861 15.557 72.7118 14.808 72.7118 13.9407C72.7118 12.927 72.9089 12.0681 73.3031 11.3641C73.6974 10.6601 74.2183 10.1223 74.866 9.7506C75.5136 9.3789 76.2148 9.19305 76.9694 9.19305C77.3975 9.19305 77.7889 9.22965 78.1437 9.30287C78.4985 9.37608 78.8223 9.46901 79.1152 9.58164C79.1321 9.58728 79.149 9.59572 79.1659 9.60417V5.49293ZM79.1659 16.1061V10.8995C79.0786 10.8685 78.9856 10.8319 78.904 10.8066C78.6393 10.7221 78.3774 10.6601 78.1183 10.6207C77.8593 10.5813 77.5889 10.5616 77.3074 10.5616C76.7216 10.5616 76.2176 10.6827 75.7952 10.9248C75.3728 11.167 75.049 11.5218 74.8237 11.9893C74.5984 12.4567 74.4858 13.0396 74.4858 13.7379C74.4858 14.4363 74.5872 14.9966 74.7899 15.4528C74.9927 15.909 75.2855 16.2469 75.6685 16.4666C76.0515 16.6862 76.5133 16.796 77.0539 16.796C77.4144 16.796 77.817 16.7144 78.262 16.551C78.5464 16.4468 78.8477 16.2948 79.1659 16.1061ZM90.7646 12.0146C90.9054 12.6228 90.9364 13.3212 90.8575 14.1096H84.7526C84.7752 14.5405 84.8343 14.9122 84.9357 15.2247C85.0652 15.619 85.2567 15.9315 85.5101 16.1624C85.7635 16.3933 86.0761 16.5567 86.4478 16.6524C86.8195 16.7481 87.2588 16.796 87.7657 16.796C88.0135 16.796 88.2613 16.7819 88.5091 16.7538C88.7569 16.7256 88.999 16.6806 89.2356 16.6186C89.4721 16.5567 89.7002 16.4863 89.9198 16.4074C90.1395 16.3286 90.3563 16.2497 90.5703 16.1709L90.452 17.4718C90.1479 17.6295 89.8438 17.7591 89.5397 17.8604C89.2356 17.9618 88.9117 18.0378 88.5682 18.0885C88.2247 18.1392 87.8276 18.1646 87.3771 18.1646C86.4309 18.1646 85.6312 17.9984 84.9779 17.6661C84.3246 17.3339 83.8318 16.8439 83.4996 16.1962C83.1673 15.5486 83.0011 14.7629 83.0011 13.8393C83.0011 13.141 83.0941 12.5074 83.2799 11.9386C83.4658 11.3698 83.7361 10.8826 84.0909 10.4771C84.4457 10.0716 84.8765 9.75623 85.3834 9.53096C85.8903 9.30568 86.4647 9.19305 87.1067 9.19305C87.7488 9.19305 88.3204 9.30005 88.8216 9.51406C89.3229 9.72807 89.7368 10.0463 90.0635 10.4687C90.3901 10.891 90.6238 11.4064 90.7646 12.0146ZM85.0033 11.9217C84.8991 12.1976 84.8315 12.5327 84.7892 12.9101H89.2328C89.2328 12.5721 89.1933 12.2539 89.1089 11.9639C88.9793 11.5134 88.7512 11.1614 88.4246 10.9079C88.0979 10.6545 87.6643 10.5278 87.1236 10.5278C86.583 10.5278 86.1662 10.6432 85.8058 10.8741C85.4454 11.1051 85.1778 11.4542 85.0033 11.9217ZM95.6305 16.7538C95.5798 16.7594 95.5207 16.7622 95.4531 16.7622C95.3067 16.7622 95.1828 16.7397 95.0814 16.6946C94.98 16.6496 94.8956 16.5792 94.828 16.4835C94.7604 16.3877 94.7125 16.2666 94.6844 16.1202C94.6562 15.9738 94.6421 15.7992 94.6421 15.5964V5.2395L92.9188 5.49293V16.3567C92.9188 16.6834 92.9638 16.9622 93.054 17.1931C93.1441 17.424 93.2736 17.6126 93.4426 17.7591C93.6115 17.9055 93.8114 18.0097 94.0423 18.0716C94.2732 18.1336 94.5239 18.1646 94.7942 18.1646C94.9294 18.1646 95.0589 18.1589 95.1828 18.1477C95.3067 18.1364 95.4278 18.1195 95.546 18.097C95.6643 18.0744 95.7629 18.0519 95.8417 18.0294L96.0107 16.6946L95.8079 16.7284C95.7403 16.7397 95.6812 16.7481 95.6305 16.7538ZM105.286 16.9143C105.376 16.903 105.472 16.8805 105.574 16.8467L105.388 17.9787C105.331 18.0012 105.267 18.0209 105.193 18.0378C105.12 18.0547 105.038 18.0744 104.948 18.097C104.858 18.1195 104.765 18.1336 104.67 18.1392C104.574 18.1448 104.475 18.1477 104.374 18.1477C104.013 18.1477 103.692 18.0885 103.411 17.9703C103.129 17.852 102.91 17.6605 102.752 17.3958C102.667 17.255 102.608 17.0889 102.569 16.8974C102.462 17.0213 102.352 17.1424 102.237 17.2522C101.927 17.5451 101.572 17.7703 101.172 17.928C100.772 18.0857 100.296 18.1646 99.7446 18.1646C99.1476 18.1646 98.6492 18.0519 98.2493 17.8266C97.8495 17.6014 97.551 17.3057 97.3539 16.9396C97.1567 16.5736 97.0582 16.1765 97.0582 15.7485C97.0582 15.298 97.1849 14.884 97.4383 14.5067C97.6918 14.1293 98.0775 13.8168 98.5957 13.569C99.1138 13.3212 99.7671 13.1748 100.556 13.1297L102.53 12.9973V12.575C102.53 12.2483 102.499 11.9639 102.431 11.7217C102.363 11.4796 102.251 11.2796 102.093 11.1219C101.935 10.9643 101.719 10.846 101.443 10.7671C101.167 10.6883 100.826 10.6489 100.42 10.6489C100.195 10.6489 99.967 10.6573 99.7361 10.6742C99.5052 10.6911 99.2715 10.7221 99.035 10.7671C98.7984 10.8122 98.5534 10.8685 98.3 10.9361C98.0466 11.0037 97.7791 11.0882 97.4975 11.1895L97.7002 9.75342C97.9818 9.64078 98.2775 9.54222 98.5872 9.45774C98.897 9.37327 99.2264 9.3085 99.5756 9.26345C99.9248 9.21839 100.28 9.19586 100.64 9.19586C101.136 9.19586 101.581 9.24092 101.975 9.33103C102.369 9.42114 102.71 9.55067 102.997 9.71962C103.284 9.88858 103.518 10.097 103.698 10.3448C103.878 10.5926 104.013 10.8798 104.104 11.2064C104.194 11.5331 104.239 11.8935 104.239 12.2877L104.205 15.7682C104.194 16.185 104.256 16.4835 104.391 16.6637C104.526 16.8439 104.746 16.934 105.05 16.934C105.117 16.934 105.196 16.9284 105.286 16.9171V16.9143ZM102.518 15.9034L102.527 14.2279H101.048C100.496 14.2279 100.057 14.273 99.7305 14.3631C99.4038 14.4532 99.1673 14.594 99.0209 14.7855C98.8745 14.9769 98.8012 15.2416 98.8012 15.5795C98.8012 15.8386 98.8576 16.0611 98.9702 16.2469C99.0828 16.4328 99.249 16.5764 99.4686 16.6778C99.6883 16.7791 99.9558 16.8298 100.271 16.8298C100.519 16.8298 100.758 16.8073 100.989 16.7622C101.22 16.7172 101.44 16.644 101.648 16.5426C101.857 16.4412 102.054 16.3173 102.239 16.1709C102.338 16.092 102.431 16.0019 102.521 15.9062L102.518 15.9034ZM114.765 9.19305V17.9449C114.765 18.6883 114.599 19.3444 114.266 19.9132C113.934 20.4821 113.441 20.927 112.788 21.248C112.135 21.569 111.329 21.7295 110.372 21.7295C109.989 21.7295 109.617 21.707 109.257 21.6619C108.896 21.6169 108.55 21.5521 108.218 21.4676C107.885 21.3831 107.567 21.279 107.263 21.1551L107.077 19.6683C107.426 19.8147 107.781 19.9358 108.142 20.0315C108.502 20.1272 108.86 20.1948 109.214 20.2343C109.569 20.2737 109.916 20.2934 110.254 20.2934C110.76 20.2934 111.191 20.2399 111.546 20.1329C111.901 20.0259 112.188 19.8626 112.408 19.6429C112.627 19.4233 112.791 19.1529 112.898 18.8319C113.005 18.5109 113.058 18.1364 113.058 17.7084V17.2466C112.74 17.4803 112.419 17.6661 112.095 17.7929C111.498 18.0294 110.896 18.1477 110.287 18.1477C109.499 18.1477 108.829 17.9759 108.277 17.6323C107.725 17.2888 107.305 16.8045 107.018 16.1793C106.731 15.5542 106.587 14.8136 106.587 13.9576C106.587 13.1916 106.7 12.513 106.925 11.9217C107.15 11.3303 107.463 10.8347 107.863 10.4349C108.263 10.035 108.716 9.72807 109.223 9.51406C109.73 9.30005 110.265 9.19305 110.828 9.19305C111.155 9.19305 111.459 9.21276 111.74 9.25218C112.022 9.2916 112.284 9.34511 112.526 9.41269C112.732 9.46901 112.926 9.53941 113.112 9.61825L114.765 9.19305ZM113.058 16.0498V10.8995C112.974 10.8685 112.886 10.8347 112.805 10.8066C112.534 10.7221 112.27 10.6573 112.011 10.6123C111.752 10.5672 111.487 10.5447 111.217 10.5447C110.766 10.5447 110.363 10.6151 110.009 10.7559C109.654 10.8967 109.355 11.0966 109.113 11.3557C108.871 11.6147 108.685 11.9442 108.556 12.3441C108.426 12.7439 108.361 13.2029 108.361 13.721C108.361 14.4194 108.454 14.991 108.64 15.4359C108.826 15.8808 109.113 16.2131 109.502 16.4328C109.89 16.6524 110.377 16.7622 110.963 16.7622C111.177 16.7622 111.383 16.7397 111.58 16.6946C111.777 16.6496 111.98 16.5848 112.188 16.5003C112.396 16.4159 112.613 16.3089 112.839 16.1793C112.909 16.1399 112.985 16.0949 113.058 16.0498Z" fill="#9FDAF5"/>
</g>
<defs>
<clipPath id="clip0_5918_1348">
<rect width="78" height="17" fill="white" transform="translate(37 5)"/>
</clipPath>
</defs>
</svg>

<svg xmlns="http://www.w3.org/2000/svg" viewBox="0 0 115 24"><path fill="#fff" d="M0 17.998v-12h4v12H0Zm9.244-10.09 2.264 10.09H7.2l-2.704-12h2.417a2.276 2.276 0 0 1 1.513.55c.42.346.66.826.819 1.36ZM12 17.998v-12h4v12h-4Zm7.01-7.436a2.381 2.381 0 0 1-2.078-1.192 2.345 2.345 0 0 1-.321-1.208 2.301 2.301 0 0 1 .321-1.2A2.41 2.41 0 0 1 20.21 6.1c.356.21.653.506.862.862.215.363.326.778.321 1.2a2.35 2.35 0 0 1-.321 1.208 2.4 2.4 0 0 1-.862.87 2.301 2.301 0 0 1-1.2.322ZM22 17.998v-12h4v12h-4Zm8.974-5.442c.01.011.095.15.253.414s.364.602.617 1.014a316.22 316.22 0 0 1 1.597 2.62c.247.41.529.876.845 1.394H29.96c-.27-.44-.516-.837-.736-1.192-.22-.355-.453-.738-.7-1.15-.248-.41-.493-.81-.736-1.199-.242-.39-.45-.73-.625-1.022a18.04 18.04 0 0 0-.363-.592 1.747 1.747 0 0 1-.287-.845c.016-.29.11-.57.27-.811.067-.113.191-.313.371-.6a182.106 182.106 0 0 0 1.37-2.23l.7-1.159.736-1.2h4.326l-3.346 5.46a1.079 1.079 0 0 0-.17.54c.012.202.083.396.204.558Z"/><g clip-path="url(#a)"><path fill="#9FDAF5" d="M42.773 7.487v10.509h-1.774V7.486h-3.87V6h9.496v1.487h-3.852Zm7.316 1.833a3.322 3.322 0 0 0-.896.388 4.407 4.407 0 0 0-.794.634c-.04.04-.079.084-.118.127v-1.26l-1.723.254v8.533h1.723v-6.384a4.223 4.223 0 0 1 .92-.493c.175-.067.353-.127.533-.177a3.59 3.59 0 0 1 1.183-.127l.202-1.588a3.215 3.215 0 0 0-1.03.093Zm10.644.38-.977 1.036c.124.163.242.338.343.527.355.659.533 1.433.533 2.323 0 .935-.192 1.746-.575 2.433a4.006 4.006 0 0 1-1.58 1.588c-.67.372-1.444.558-2.323.558-.878 0-1.602-.175-2.238-.524a3.631 3.631 0 0 1-.409-.265l-.9.974-.778-.71.94-1.002a3.977 3.977 0 0 1-.332-.526c-.349-.67-.524-1.467-.524-2.391 0-.924.184-1.723.55-2.4.366-.675.878-1.199 1.537-1.57.659-.372 1.428-.558 2.306-.558.879 0 1.656.18 2.298.54.138.077.265.164.389.257l.946-1 .794.71Zm-7.012 3.92c0 .69.102 1.267.307 1.737l3.931-4.246a1.967 1.967 0 0 0-.518-.341c-.315-.14-.687-.211-1.115-.211-.53 0-.988.112-1.377.338-.389.225-.69.563-.904 1.013-.214.451-.32 1.02-.32 1.707l-.004.003Zm5.12 0c0-.462-.054-.882-.16-1.259a3.395 3.395 0 0 0-.15-.414l-3.934 4.246c.099.093.2.178.315.248.378.237.82.355 1.327.355a2.58 2.58 0 0 0 1.343-.346c.389-.231.695-.583.92-1.056.226-.473.339-1.065.339-1.774Zm10.576-4.072c-.428-.237-.969-.355-1.622-.355-.484 0-.966.076-1.444.228a5.49 5.49 0 0 0-1.36.65 6.35 6.35 0 0 0-.474.347V9.21l-1.723.253v8.533h1.724v-6.418a4.94 4.94 0 0 1 .515-.265c.242-.107.484-.2.726-.278.242-.08.485-.138.727-.178.242-.04.476-.059.701-.059.315 0 .586.042.81.127.226.084.412.211.558.38.147.169.254.383.321.642.068.26.102.563.102.912v5.137H70.7v-5.491c0-.766-.107-1.392-.32-1.876-.215-.484-.536-.845-.964-1.081Zm9.749-4.055 1.723-.237v12.74h-1.402l-.211-.78a4.98 4.98 0 0 1-.38.256 4.606 4.606 0 0 1-1.175.524c-.4.112-.825.169-1.275.169-.778 0-1.445-.172-2.002-.516a3.355 3.355 0 0 1-1.285-1.461c-.298-.631-.447-1.38-.447-2.247 0-1.014.197-1.873.591-2.577.394-.704.915-1.242 1.563-1.613a4.154 4.154 0 0 1 2.103-.558 5.82 5.82 0 0 1 2.197.411V5.493Zm0 10.613V10.9c-.087-.03-.18-.067-.262-.092a5.108 5.108 0 0 0-1.597-.245c-.585 0-1.09.12-1.512.363a2.383 2.383 0 0 0-.971 1.064c-.226.468-.338 1.05-.338 1.749 0 .698.101 1.259.304 1.715.203.456.495.794.878 1.014.383.22.845.329 1.386.329.36 0 .763-.082 1.208-.245.284-.104.586-.256.904-.445Zm11.599-4.091c.14.608.171 1.306.093 2.095h-6.105c.022.43.081.802.183 1.115.13.394.32.707.574.937.253.231.566.395.938.49a5.33 5.33 0 0 0 1.318.144c.247 0 .495-.014.743-.042.248-.028.49-.073.727-.135.236-.062.464-.133.684-.212.22-.078.436-.157.65-.236l-.118 1.3a6.325 6.325 0 0 1-.912.39 5.696 5.696 0 0 1-.972.227c-.343.051-.74.077-1.19.077-.947 0-1.747-.167-2.4-.499a3.303 3.303 0 0 1-1.478-1.47C83.167 15.55 83 14.763 83 13.84a6.1 6.1 0 0 1 .279-1.9 4.143 4.143 0 0 1 .81-1.462 3.68 3.68 0 0 1 1.293-.946c.507-.225 1.082-.338 1.724-.338.642 0 1.213.107 1.715.321.5.214.915.532 1.242.955.326.422.56.937.7 1.546Zm-5.762-.093a4.157 4.157 0 0 0-.214.988h4.444c0-.338-.04-.656-.124-.946-.13-.45-.358-.803-.684-1.056-.327-.253-.76-.38-1.301-.38-.541 0-.958.115-1.318.346-.36.231-.628.58-.803 1.048Zm10.627 4.832c-.05.005-.11.008-.177.008a.913.913 0 0 1-.372-.067.61.61 0 0 1-.253-.212.926.926 0 0 1-.144-.363 2.809 2.809 0 0 1-.042-.524V5.24l-1.723.254v10.864c0 .326.045.605.135.836.09.231.22.42.389.566.169.146.368.25.6.313.23.062.48.093.751.093a3.775 3.775 0 0 0 1.047-.135l.17-1.335-.203.033c-.068.012-.127.02-.178.026Zm9.656.16c.09-.011.186-.034.288-.067l-.186 1.132a1.343 1.343 0 0 1-.195.059c-.073.017-.155.036-.245.059-.09.022-.183.037-.278.042a5.091 5.091 0 0 1-.296.009c-.361 0-.682-.06-.963-.178a1.364 1.364 0 0 1-.659-.574 1.557 1.557 0 0 1-.183-.499 5.088 5.088 0 0 1-.332.355c-.31.293-.665.518-1.065.676-.4.158-.876.237-1.427.237-.597 0-1.096-.113-1.496-.338-.4-.226-.698-.521-.895-.887a2.472 2.472 0 0 1-.296-1.192c0-.45.127-.864.38-1.241.254-.378.64-.69 1.158-.938.518-.248 1.171-.394 1.96-.44l1.974-.132v-.422c0-.327-.031-.611-.099-.853a1.34 1.34 0 0 0-.338-.6 1.472 1.472 0 0 0-.65-.355 3.782 3.782 0 0 0-1.023-.118c-.225 0-.453.008-.684.025-.23.017-.465.048-.701.093a9.978 9.978 0 0 0-1.537.422l.202-1.436a8.19 8.19 0 0 1 .887-.295c.31-.085.64-.15.989-.195.349-.045.704-.067 1.064-.067.496 0 .941.045 1.335.135.394.09.735.22 1.022.389.287.169.521.377.701.625.18.248.315.535.406.861.09.327.135.688.135 1.082l-.034 3.48c-.011.417.051.715.186.896.135.18.355.27.659.27.067 0 .146-.006.236-.017v-.003Zm-2.768-1.01.009-1.676h-1.479c-.552 0-.991.045-1.317.135-.327.09-.564.231-.71.423-.147.19-.22.456-.22.793 0 .26.057.482.17.668.112.186.278.33.498.43.22.102.487.153.802.153.248 0 .487-.023.718-.068.231-.045.451-.118.659-.22.209-.1.406-.225.591-.371.099-.079.192-.17.282-.265l-.003-.003Zm12.247-6.711v8.752c0 .743-.166 1.4-.499 1.968-.332.57-.825 1.014-1.478 1.335-.653.321-1.459.482-2.416.482a8.97 8.97 0 0 1-1.115-.068 8.44 8.44 0 0 1-1.039-.194 7.251 7.251 0 0 1-.955-.313l-.186-1.487c.349.147.704.268 1.065.364.36.095.718.163 1.072.202.355.04.702.06 1.04.06.506 0 .937-.054 1.292-.161.355-.107.642-.27.862-.49.219-.22.383-.49.49-.811.107-.321.16-.696.16-1.124v-.461c-.318.233-.639.42-.963.546a4.87 4.87 0 0 1-1.808.355c-.788 0-1.458-.172-2.01-.516a3.274 3.274 0 0 1-1.259-1.453c-.287-.625-.431-1.365-.431-2.221 0-.766.113-1.445.338-2.036a4.16 4.16 0 0 1 .938-1.487c.4-.4.853-.707 1.36-.92a4.085 4.085 0 0 1 1.605-.322c.327 0 .631.02.912.06.282.039.544.092.786.16.206.056.4.126.586.205l1.653-.425Zm-1.707 6.857V10.9c-.084-.032-.172-.065-.253-.093a6.276 6.276 0 0 0-.794-.195 4.623 4.623 0 0 0-.794-.067c-.451 0-.854.07-1.208.21-.355.142-.654.342-.896.6a2.586 2.586 0 0 0-.557.99c-.13.399-.195.858-.195 1.376 0 .698.093 1.27.279 1.715.186.445.473.777.862.997.388.22.875.33 1.461.33.214 0 .42-.023.617-.068.197-.045.4-.11.608-.195a6.384 6.384 0 0 0 .87-.45Z"/></g><defs><clipPath id="a"><path fill="#fff" d="M37 5h78v17H37z"/></clipPath></defs></svg>
